svgs/light/chf-sign.svg

<svg xmlns="http://www.w3.org/2000/svg" viewBox="0 0 640 512"><!--! Font Awesome Pro 6.6.0 by @fontawesome - https://fontawesome.com License - https://fontawesome.com/license (Commercial License) Copyright 2024 Fonticons, Inc. --><path d="M0 112C0 67.8 35.8 32 80 32l4.2 0c28 0 53.6 15.8 66.1 40.8c4 7.9 .7 17.5-7.2 21.5s-17.5 .7-21.5-7.2C114.6 73 100.1 64 84.2 64L80 64c-26.5 0-48 21.5-48 48l0 288c0 26.5 21.5 48 48 48l4.2 0c15.9 0 30.4-9 37.5-23.2c4-7.9 13.6-11.1 21.5-7.2s11.1 13.6 7.2 21.5c-12.5 25-38.1 40.8-66.1 40.8L80 480c-44.2 0-80-35.8-80-80L0 112zM208 32c8.8 0 16 7.2 16 16l0 176 160 0 0-176c0-8.8 7.2-16 16-16s16 7.2 16 16l0 416c0 8.8-7.2 16-16 16s-16-7.2-16-16l0-208-160 0 0 208c0 8.8-7.2 16-16 16s-16-7.2-16-16l0-416c0-8.8 7.2-16 16-16zM448 48c0-8.8 7.2-16 16-16l160 0c8.8 0 16 7.2 16 16s-7.2 16-16 16L480 64l0 160 112 0c8.8 0 16 7.2 16 16s-7.2 16-16 16l-112 0 0 208c0 8.8-7.2 16-16 16s-16-7.2-16-16l0-416z"/></svg>

<svg xmlns="http://www.w3.org/2000/svg" viewBox="0 0 640 512"><!--! Font Awesome Pro 6.4.2 by @fontawesome - https://fontawesome.com License - https://fontawesome.com/license (Commercial License) Copyright 2023 Fonticons, Inc. --><path d="M0 112C0 67.8 35.8 32 80 32h4.2c28 0 53.6 15.8 66.1 40.8c4 7.9 .7 17.5-7.2 21.5s-17.5 .7-21.5-7.2C114.6 73 100.1 64 84.2 64H80c-26.5 0-48 21.5-48 48V400c0 26.5 21.5 48 48 48h4.2c15.9 0 30.4-9 37.5-23.2c4-7.9 13.6-11.1 21.5-7.2s11.1 13.6 7.2 21.5c-12.5 25-38.1 40.8-66.1 40.8H80c-44.2 0-80-35.8-80-80V112zM208 32c8.8 0 16 7.2 16 16V224H384V48c0-8.8 7.2-16 16-16s16 7.2 16 16V464c0 8.8-7.2 16-16 16s-16-7.2-16-16V256H224V464c0 8.8-7.2 16-16 16s-16-7.2-16-16V48c0-8.8 7.2-16 16-16zM448 48c0-8.8 7.2-16 16-16H624c8.8 0 16 7.2 16 16s-7.2 16-16 16H480V224H592c8.8 0 16 7.2 16 16s-7.2 16-16 16H480V464c0 8.8-7.2 16-16 16s-16-7.2-16-16V48z"/></svg>
